src/actions/24/kdenlive-object-width.svg

<svg viewBox="0 0 24 24" xmlns="http://www.w3.org/2000/svg">
 <defs>
  <style type="text/css">.ColorScheme-Text {
        color:#2e3440;
      }</style>
 </defs>
 <g transform="translate(1,1)">
  <path class="ColorScheme-Text" d="m3 3v1 3h1v-3h3v-1h-3-1zm12 0v1h3v3h1v-3-1h-1-3zm-9 3v10h10v-10h-10zm1 1h8v8h-8v-8zm-2 2-2 2 2 2v-4zm12 0v4l2-2-2-2zm-14 6v3 1h4v-1h-3v-3h-1zm15 0v3h-3v1h4v-1-3h-1z" fill="currentColor"/>
 </g>
</svg>

<svg xmlns="http://www.w3.org/2000/svg" viewBox="0 0 24 24">
  <defs id="defs3051">
    <style type="text/css" id="current-color-scheme">
      .ColorScheme-Text {
        color:#2e3440;
      }
      </style>
  </defs><g transform="translate(1,1)">
 <path 
     style="fill:currentColor;fill-opacity:1;stroke:none" 
     d="M 3 3 L 3 4 L 3 7 L 4 7 L 4 4 L 7 4 L 7 3 L 4 3 L 3 3 z M 15 3 L 15 4 L 18 4 L 18 7 L 19 7 L 19 4 L 19 3 L 18 3 L 15 3 z M 6 6 L 6 16 L 16 16 L 16 6 L 6 6 z M 7 7 L 15 7 L 15 15 L 7 15 L 7 7 z M 5 9 L 3 11 L 5 13 L 5 9 z M 17 9 L 17 13 L 19 11 L 17 9 z M 3 15 L 3 18 L 3 19 L 7 19 L 7 18 L 4 18 L 4 15 L 3 15 z M 18 15 L 18 18 L 15 18 L 15 19 L 19 19 L 19 18 L 19 15 L 18 15 z "
     class="ColorScheme-Text"
     />
</g></svg>
